!!!COM: Claude Goudimel
!!!OMD: Psalm 101: Vouloir m'est pris de mettre en
**kern	**kern	**kern	**kern
*part4	*part3	*part2	*part1
*staff4	*staff3	*staff2	*staff1
*clefF4	*clefGv2	*clefG2	*clefG2
*k[f#]	*k[f#]	*k[f#]	*k[f#]
!!LO:TX:omd:t=
*M4/4	*M4/4	*M4/4	*M4/4
=1	=1	=1	=1
2D	2A	2d	2d
2C	2c	2e	2g
=2	=2	=2	=2
2GG	2d	2g	2b
4D	4d	4f#	4a
4D	4d	4f#	4a
=3	=3	=3	=3
4G	4d	4g	4b
4G	4B	4b	4dd
4C	4e	4a	4cc
4GG	4d	[4g	4b
=4	=4	=4	=4
2D	2d	4g]	2a
.	.	4f#	.
2GG	2d	2g	2g
=5	=5	=5	=5
2r	2r	2r	2r
2GG	2B	2d	2g
=6	=6	=6	=6
4BB	4B	4d	4f#
4C	4G	4c	4e
4GG	4G	4B	4d
4D	4F#	4A	4d
=7	=7	=7	=7
4C	4E	4c	4g
4E	4E	4B	4g
4D	4F#	4d	4a
4BB	4F#	4d	4b
=8	=8	=8	=8
2AA	2A	2e	2cc
2BB	2F#	2e-X	2b
=9	=9	=9	=9
2r	2r	2r	2r
2G	2d	2g	2b
=10	=10	=10	=10
4G	4B	4g	4dd
4C	4e	4g	4cc
2G	2d	2g	2b
=11	=11	=11	=11
2D	2d	2f#	2a
4E	4B	4e	4g
4BB	4B	4d	4f#
=12	=12	=12	=12
4E	4B	4e	4g
4D	4d	4f#	4a
2G	2d	2g	2b
=13	=13	=13	=13
2r	2r	2r	2r
2C	2e	2g	2cc
=14	=14	=14	=14
2G	2d	2g	2b
2D	2d	2f#	2a
=15	=15	=15	=15
1GG	1d	1g	1g
==	==	==	==
*-	*-	*-	*-
!!!software: music21 v.9.7.1
!!!software: music21 v.8.3.0
!!!RDF**kern: > = above
!!!RDF**kern: < = below
